X:1
T:Title
%%score { 1 | 2 }
L:1/8
M:6/8
K:Eb
V:1 treble nm="Grand Piano"
V:2 bass 
V:1
 z3 z2[Q:1/4=87] B | B2 G G2 F | F E2- E2 E | E2 E [DG]2 [DF] | E3- E2 B | B2 G G2 F | F E2- E2 G | %7
 G2 G F2 E | [DF]3- [DF]2 [DF] | [DA]2 [DA] [DG]2 [DF] | G B2- B2 B | [Ee]2 [Ee] d2 e | c3- c2 c | %13
 [Ec]2 [Ec] [Ed]2 [Ec] | [EB] [Ee]2- [Ee]2 [CFA] | [B,EG]2 [B,EG] [A,DF]2 [A,DF] | %16
[M:5/8] [G,E]- [G,E]3 z |] %17
V:2
 z3 z2 [E,G,E] | [E,G,E]2 [E,B,E] [E,B,D]2 [E,A,D] | [E,A,D] [E,G,]2- [E,G,]2 [E,G,] | %3
 [C,G,C]2 [C,G,C] [B,,B,]2 [B,,A,] | [E,G,]3- [E,G,]2 [E,G,E] | [E,G,E]2 [E,B,E] [E,B,D]2 [E,A,D] | %6
 [E,A,D] [E,G,]2- [E,G,]2 [E,B,E] | [F,=A,E]2 [F,A,E] [F,A,E]2 [F,A,] | %8
 [B,,B,]3- [B,,B,]2 [B,,B,] | [B,,B,]2 [B,,B,] [B,,B,]2 [B,,B,] | %10
 [E,B,E] [E,G,E]2- [E,G,E]2 [E,G,E] | [C,G,]2 [C,G,][K:treble] [G,=B,F]2 [G,B,F] | %12
 [A,CE]3- [A,CE]2 [A,E] | [A,,A,]2 [A,,A,] [=A,,_G,]2 [A,,G,] | [B,,G,] [C,G,]2- [C,G,]2 A,, | %15
 B,,2 B,, B,,2 B,, |[M:5/8] E,- E,3 z |] %17

